assets/Poodle/Flat/poodle_flat.svg

<svg width="32" height="32" viewBox="0 0 32 32" fill="none" xmlns="http://www.w3.org/2000/svg">
<path d="M30 7.5C30 8.88071 28.8807 10 27.5 10C27.456 10 27.4123 9.99886 27.3688 9.99662C26.6854 11.8398 24.9148 13.1601 22.84 13.1601C22.56 13.1601 22.34 12.9401 22.34 12.6601C22.34 12.3801 22.56 12.1601 22.84 12.1601C24.4507 12.1601 25.8341 11.1578 26.3987 9.74496C25.5702 9.33776 25 8.48547 25 7.5C25 6.11929 26.1193 5 27.5 5C28.8807 5 30 6.11929 30 7.5Z" fill="#D3D3D3"/>
<path d="M19 19.87V17H24V21.6C24 21.83 24.13 22.05 24.33 22.16L25.45 22.73C25.78 22.9 25.99 23.24 25.99 23.61V29.69C25.99 29.86 25.85 30 25.68 30H24.3C24.13 30 23.99 29.86 23.99 29.69V24.36C23.99 24.15 23.86 23.95 23.66 23.87L20.95 22.77C19.77 22.29 19 21.14 19 19.87Z" fill="#636363"/>
<path d="M9 21H11V29.69C11 29.86 10.86 30 10.69 30H9.31C9.14 30 9 29.86 9 29.69V21Z" fill="#636363"/>
<path d="M6.25 10.26L7 8H12V12H23.76C25.55 12 27 13.45 27 15.24V21.6C27 21.83 27.13 22.05 27.34 22.15L28.46 22.72C28.79 22.89 29 23.23 28.99 23.61V29.69C28.99 29.86 28.85 30 28.68 30H27.3C27.13 30 26.99 29.86 26.99 29.69V24.36C26.99 24.15 26.86 23.95 26.66 23.87L23.95 22.77C22.77 22.29 22 21.14 22 19.87V16.84C22 18.03 21.03 19 19.84 19H7V14H4.5C3.12 14 1.99 12.87 2 11.49C2 11.22 2.23 11 2.5 11H5.22C5.69 11 6.1 10.7 6.25 10.26Z" fill="#9B9B9B"/>
<path d="M7 11.2999C7 11.5899 7.22115 11.8199 7.5 11.8199C7.77885 11.8199 8 11.5899 8 11.2999V10.6999C8 10.4099 7.77885 10.1799 7.5 10.1799C7.22115 10.1799 7 10.4099 7 10.6999V11.2999Z" fill="#212121"/>
<path d="M2.5 12H3C3.28 12 3.5 11.78 3.5 11.5C3.5 11.22 3.28 11 3 11H2.5C2.22 11 2 11.22 2 11.5C2 11.78 2.22 12 2.5 12Z" fill="#212121"/>
<path d="M14.65 10C14.3 10 14.01 9.72 14.01 9.37L14 5.47C13.98 4.1 12.87 3 11.5 3C10.53 3 9.68001 3.56 9.27001 4.37C9.08001 4.75 8.69001 5 8.27001 5H7.00001C5.90001 5 5.00001 5.9 5.00001 7C5.00001 8.1 5.90001 9 7.00001 9H11.25C11.66 9 12 9.34 12 9.75L12.02 14H6.49001C5.64001 14 4.92001 14.64 4.81001 15.48L4.50001 17.98C4.24001 20.12 5.90001 22 8.05001 22H11V25.2676C10.7058 25.0974 10.3643 25 10 25C8.89543 25 8 25.8954 8 27C8 28.1046 8.89543 29 10 29C10.3643 29 10.7058 28.9026 11 28.7324V29.69C11 29.86 11.14 30 11.31 30H12.69C12.86 30 13 29.86 13 29.69V21.9496C15.2629 21.6159 17 19.6656 17 17.31V12.36C17 11.06 15.95 10 14.65 10Z" fill="#D3D3D3"/>
<path d="M25 29C26.1046 29 27 28.1046 27 27C27 25.8954 26.1046 25 25 25C23.8954 25 23 25.8954 23 27C23 28.1046 23.8954 29 25 29Z" fill="#D3D3D3"/>
<path d="M13.87 13.69L12.97 10.16C12.81 9.5 12.21 9 11.5 9C10.79 9 10.19 9.5 10.04 10.16L9.13 13.69H9.14C9.05 13.94 9 14.22 9 14.5C9 15.88 10.12 17 11.5 17C12.88 17 14 15.88 14 14.5C14 14.22 13.95 13.95 13.87 13.69Z" fill="#E6E6E6"/>
<path d="M28 29C29.1046 29 30 28.1046 30 27C30 25.8954 29.1046 25 28 25C26.8954 25 26 25.8954 26 27C26 28.1046 26.8954 29 28 29Z" fill="#E6E6E6"/>
<path d="M14 27C14 28.1046 13.1046 29 12 29C10.8954 29 10 28.1046 10 27C10 25.8954 10.8954 25 12 25C13.1046 25 14 25.8954 14 27Z" fill="#E6E6E6"/>
</svg>

<svg xmlns="http://www.w3.org/2000/svg" width="32" height="32" fill="none"><path fill="#D3D3D3" d="M30 7.5a2.5 2.5 0 0 1-2.631 2.497c-.684 1.843-2.454 3.163-4.529 3.163-.28 0-.5-.22-.5-.5s.22-.5.5-.5a3.84 3.84 0 0 0 3.559-2.415A2.5 2.5 0 1 1 30 7.5Z"/><path fill="#636363" d="M19 19.87V17h5v4.6c0 .23.13.45.33.56l1.12.57c.33.17.54.51.54.88v6.08c0 .17-.14.31-.31.31H24.3c-.17 0-.31-.14-.31-.31v-5.33c0-.21-.13-.41-.33-.49l-2.71-1.1a3.133 3.133 0 0 1-1.95-2.9ZM9 21h2v8.69c0 .17-.14.31-.31.31H9.31c-.17 0-.31-.14-.31-.31V21Z"/><path fill="#9B9B9B" d="M6.25 10.26 7 8h5v4h11.76A3.24 3.24 0 0 1 27 15.24v6.36c0 .23.13.45.34.55l1.12.57c.33.17.54.51.53.89v6.08c0 .17-.14.31-.31.31H27.3c-.17 0-.31-.14-.31-.31v-5.33c0-.21-.13-.41-.33-.49l-2.71-1.1a3.133 3.133 0 0 1-1.95-2.9v-3.03c0 1.19-.97 2.16-2.16 2.16H7v-5H4.5c-1.38 0-2.51-1.13-2.5-2.51a.5.5 0 0 1 .5-.49h2.72c.47 0 .88-.3 1.03-.74Z"/><path fill="#212121" d="M7 11.3c0 .29.221.52.5.52s.5-.23.5-.52v-.6c0-.29-.221-.52-.5-.52s-.5.23-.5.52v.6ZM2.5 12H3c.28 0 .5-.22.5-.5S3.28 11 3 11h-.5c-.28 0-.5.22-.5.5s.22.5.5.5Z"/><path fill="#D3D3D3" d="M14.65 10c-.35 0-.64-.28-.64-.63L14 5.47a2.501 2.501 0 0 0-4.73-1.1c-.19.38-.58.63-1 .63H7c-1.1 0-2 .9-2 2s.9 2 2 2h4.25c.41 0 .75.34.75.75l.02 4.25H6.49c-.85 0-1.57.64-1.68 1.48l-.31 2.5A3.58 3.58 0 0 0 8.05 22H11v3.268a2 2 0 1 0 0 3.465v.957c0 .17.14.31.31.31h1.38c.17 0 .31-.14.31-.31v-7.74a4.691 4.691 0 0 0 4-4.64v-4.95c0-1.3-1.05-2.36-2.35-2.36ZM25 29a2 2 0 1 0 0-4 2 2 0 0 0 0 4Z"/><path fill="#E6E6E6" d="m13.87 13.69-.9-3.53C12.81 9.5 12.21 9 11.5 9s-1.31.5-1.46 1.16l-.91 3.53h.01c-.09.25-.14.53-.14.81a2.5 2.5 0 0 0 5 0c0-.28-.05-.55-.13-.81ZM28 29a2 2 0 1 0 0-4 2 2 0 0 0 0 4ZM14 27a2 2 0 1 1-4 0 2 2 0 0 1 4 0Z"/></svg>
